;FLAVOR:RepRap
;TIME:7785









;POSTPROCESSED
;TweakAtZ instances: 9
;Generated with Cura_SteamEngine 2.3.1
M190 S65
M104 S220
M109 S220
G28 ;Home
G1 Z15.0 F6000 ;Move the platform down 15mm
;Prime the extruder
G92 E0
G1 F200 E3
G92 E0
;LAYER_COUNT:299
;LAYER:0
M107
G0 F3600 X89.95 Y88.805 Z.3
;TYPE:SKIRT
G1 F1200 X90.347 Y88.402 E0.02822
G1 X90.797 Y88.06 E0.05642
G1 X91.29 Y87.784 E0.08461
G1 X91.818 Y87.58 E0.11285
G1 X92.368 Y87.453 E0.14101
G1 X92.991 Y87.404 E0.17219
G1 X137.009 Y87.405 E2.36826
G1 X137.573 Y87.445 E2.39646
G1 X138.126 Y87.564 E2.42468
G1 X138.656 Y87.76 E2.45288
G1 X139.153 Y88.028 E2.48105
G1 X139.608 Y88.364 E2.50927
G1 X140.011 Y88.761 E2.53749
G1 X140.353 Y89.211 E2.56569
G1 X140.629 Y89.704 E2.59388
G1 X140.833 Y90.232 E2.62212
G1 X140.96 Y90.782 E2.65028
G1 X141.009 Y91.406 E2.6815
G1 X141.008 Y95.338 E2.87767
G1 X140.968 Y95.902 E2.90588
G1 X140.849 Y96.455 E2.9341
G1 X140.653 Y96.985 E2.96229
G1 X140.384 Y97.482 E2.99049
G1 X140.143 Y97.821 E3.01124
G1 X135.906 Y103.167 E3.35156
G1 X132.799 Y107.629 E3.62282
G1 X129.961 Y112.242 E3.89303
G1 X127.376 Y117.029 E4.16445
G1 X125.067 Y121.952 E4.43574
G1 X123.03 Y127.02 E4.70824
G1 X122.153 Y129.51 E4.83995
G1 X120.543 Y134.768 E5.11429
G1 X119.614 Y138.388 E5.30075
G1 X119.436 Y138.925 E5.32897
G1 X119.183 Y139.43 E5.35715
G1 X118.861 Y139.895 E5.38537
G1 X118.478 Y140.31 E5.41354
G1 X118.039 Y140.667 E5.44177
G1 X117.555 Y140.959 E5.46997
G1 X117.034 Y141.179 E5.49819
G1 X116.487 Y141.324 E5.52642
G1 X115.74 Y141.394 E5.56385
G1 X92.991 Y141.394 E6.6988
G1 X92.427 Y141.354 E6.72701
G1 X91.874 Y141.235 E6.75523
G1 X91.344 Y141.039 E6.78343
G1 X90.847 Y140.771 E6.8116
G1 X90.392 Y140.435 E6.83982
G1 X89.989 Y140.038 E6.86804
G1 X89.647 Y139.588 E6.89624
G1 X89.371 Y139.095 E6.92442
G1 X89.167 Y138.567 E6.95266
G1 X89.04 Y138.017 E6.98083
G1 X88.991 Y137.394 E7.012
G1 X88.991 Y91.404 E9.30645
G1 X89.031 Y90.84 E9.33466
G1 X89.15 Y90.287 E9.36288
G1 X89.346 Y89.757 E9.39108
G1 X89.614 Y89.26 E9.41925
G1 X89.95 Y88.805 E9.44747
G0 F3600 X90.346 Y88.962
G1 F1200 X90.738 Y88.596 E9.47422
G1 X91.18 Y88.293 E9.50096
G1 X91.663 Y88.058 E9.52775
G1 X92.174 Y87.898 E9.55447
G1 X92.704 Y87.815 E9.58123
G1 X92.991 Y87.804 E9.59556
G1 X137.009 Y87.805 E11.79163
G1 X137.544 Y87.845 E11.81839
G1 X138.067 Y87.964 E11.84515
G1 X138.566 Y88.159 E11.87188
G1 X139.031 Y88.427 E11.89866
G1 X139.451 Y88.76 E11.9254
G1 X139.817 Y89.152 E11.95216
G1 X140.12 Y89.594 E11.97889
G1 X140.355 Y90.077 E12.00569
G1 X140.515 Y90.588 E12.0324
G1 X140.598 Y91.118 E12.05917
G1 X140.609 Y91.406 E12.07355
G1 X140.608 Y95.338 E12.26971
G1 X140.568 Y95.873 E12.29648
G1 X140.449 Y96.396 E12.32324
G1 X140.253 Y96.895 E12.34999
G1 X139.829 Y97.573 E12.38988
G1 X135.578 Y102.937 E12.73134
G1 X132.473 Y107.397 E13.00247
G1 X129.614 Y112.043 E13.27463
G1 X127.015 Y116.855 E13.54748
G1 X124.705 Y121.782 E13.81896
G1 X122.648 Y126.898 E14.09406
G1 X121.774 Y129.38 E14.22534
G1 X120.164 Y134.638 E14.49968
G1 X119.227 Y138.289 E14.68774
G1 X119.055 Y138.797 E14.71449
G1 X118.81 Y139.274 E14.74125
G1 X118.497 Y139.709 E14.76798
G1 X118.122 Y140.093 E14.79476
G1 X117.695 Y140.417 E14.8215
G1 X117.224 Y140.674 E14.84827
G1 X116.72 Y140.858 E14.87504
G1 X116.195 Y140.965 E14.90177
G1 X115.74 Y140.994 E14.92452
G1 X92.991 Y140.994 E16.05947
G1 X92.456 Y140.954 E16.08623
G1 X91.933 Y140.835 E16.11299
G1 X91.434 Y140.64 E16.13972
G1 X90.969 Y140.372 E16.1665
G1 X90.549 Y140.039 E16.19324
G1 X90.183 Y139.647 E16.21999
G1 X89.88 Y139.205 E16.24673
G1 X89.645 Y138.722 E16.27353
G1 X89.485 Y138.211 E16.30024
G1 X89.402 Y137.681 E16.32701
G1 X89.391 Y137.394 E16.34133
G1 X89.391 Y91.404 E18.63579
G1 X89.431 Y90.869 E18.66255
G1 X89.55 Y90.346 E18.68931
G1 X89.745 Y89.847 E18.71604
G1 X90.013 Y89.382 E18.74282
G1 X90.346 Y88.962 E18.76956
G0 F3600 X90.74 Y89.129
G1 F1200 X91.127 Y88.803 E18.7948
G1 X91.56 Y88.542 E18.82002
G1 X92.028 Y88.352 E18.84522
G1 X92.521 Y88.239 E18.87046
G1 X92.991 Y88.204 E18.89397
G1 X137.009 Y88.205 E21.09004
G1 X137.513 Y88.245 E21.11526
G1 X138.004 Y88.364 E21.14047
G1 X138.471 Y88.559 E21.16572
G1 X138.901 Y88.824 E21.19091
G1 X139.284 Y89.155 E21.21617
G1 X139.61 Y89.541 E21.24138
G1 X139.871 Y89.974 E21.2666
G1 X140.061 Y90.442 E21.2918
G1 X140.174 Y90.935 E21.31703
G1 X140.209 Y91.406 E21.3406
G1 X140.208 Y95.338 E21.53676
G1 X140.168 Y95.842 E21.56199
G1 X140.049 Y96.333 E21.58719
G1 X139.854 Y96.8 E21.61244
G1 X139.516 Y97.325 E21.64359
G1 X135.256 Y102.7 E21.98576
G1 X132.128 Y107.192 E22.25885
G1 X129.267 Y111.842 E22.53123
G1 X126.662 Y116.667 E22.8048
G1 X124.336 Y121.626 E23.07807
G1 X122.277 Y126.749 E23.35352
G1 X121.396 Y129.249 E23.48577
G1 X119.778 Y134.534 E23.76152
G1 X118.84 Y138.189 E23.94978
G1 X118.676 Y138.668 E23.97503
G1 X118.438 Y139.114 E24.00026
G1 X118.134 Y139.518 E24.02548
G1 X117.769 Y139.868 E24.05071
G1 X117.354 Y140.157 E24.07594
G1 X116.899 Y140.377 E24.10115
G1 X116.415 Y140.522 E24.12636
G1 X115.74 Y140.594 E24.16023
G1 X92.991 Y140.594 E25.29518
G1 X92.487 Y140.554 E25.3204
G1 X91.996 Y140.435 E25.34561
G1 X91.529 Y140.241 E25.37084
G1 X91.099 Y139.975 E25.39606
G1 X90.716 Y139.645 E25.42129
G1 X90.39 Y139.258 E25.44653
G1 X90.129 Y138.825 E25.47175
G1 X89.939 Y138.357 E25.49695
G1 X89.826 Y137.864 E25.52219
G1 X89.791 Y137.394 E25.5457
G1 X89.791 Y91.404 E27.84015
G1 X89.831 Y90.9 E27.86537
G1 X89.95 Y90.409 E27.89058
G1 X90.144 Y89.942 E27.91581
G1 X90.41 Y89.512 E27.94103
G1 X90.74 Y89.129 E27.96626
G0 F3600 X93.61 Y90.73
G0 X93.61 Y92.023
G0 X93.982 Y92.395
;TYPE:WALL-INNER
G1 F1200 X136.018 Y92.395 E30.06344
G1 X136.018 Y94.34 E30.16048
G1 X114.749 Y94.34 E31.22159
G1 X114.749 Y136.403 E33.32012
G1 X93.982 Y136.403 E34.35619
G1 X93.982 Y92.395 E36.55176
G0 F3600 X93.582 Y91.995
G1 F1200 X136.418 Y91.995 E38.68886
G1 X136.418 Y94.74 E38.82581
G1 X115.149 Y94.74 E39.88692
G1 X115.149 Y136.803 E41.98545
G1 X93.582 Y136.803 E43.06144
G1 X93.582 Y91.995 E45.29692
G0 F3600 X93.182 Y91.595
;TYPE:WALL-OUTER
G1 F1200 X136.818 Y91.595 E47.47393
G1 X136.818 Y95.14 E47.65079
G1 X115.549 Y95.14 E48.7119
G1 X115.549 Y137.203 E50.81043
G1 X93.182 Y137.203 E51.92633
G1 X93.182 Y91.595 E54.20172
G0 F3600 X93.652 Y92.065
G0 X94.272 Y92.575
;TYPE:SKIN
G1 F1200 X114.568 Y112.871 E55.63371
G0 X114.638 Y112.941
G0 F3600 X114.568 Y112.306
G1 F1200 X94.837 Y92.575 E57.02584
G0 X94.767 Y92.505
G0 F3600 X95.403 Y92.575
G1 F1200 X114.568 Y111.74 E58.37803
G0 X114.638 Y111.81
G0 F3600 X114.568 Y111.174
G1 F1200 X95.969 Y92.575 E59.69029
G0 X95.899 Y92.505
G0 F3600 X96.534 Y92.575
G1 F1200 X114.568 Y110.609 E60.96269
G0 X114.638 Y110.679
G0 F3600 X114.568 Y110.043
G1 F1200 X97.1 Y92.575 E62.19515
G0 X97.03 Y92.505
G0 F3600 X97.666 Y92.575
G1 F1200 X114.568 Y109.477 E63.38768
G0 X114.638 Y109.547
G0 F3600 X114.568 Y108.912
G1 F1200 X98.231 Y92.575 E64.54034
G0 X98.161 Y92.505
G0 F3600 X98.797 Y92.575
G1 F1200 X114.568 Y108.346 E65.65307
G0 X114.638 Y108.416
G0 F3600 X114.568 Y107.78
G1 F1200 X99.363 Y92.575 E66.72587
G0 X99.293 Y92.505
G0 F3600 X99.929 Y92.575
G1 F1200 X114.568 Y107.215 E67.75876
G0 X114.638 Y107.285
G0 F3600 X114.568 Y106.649
G1 F1200 X100.494 Y92.575 E68.75176
G0 X100.424 Y92.505
G0 F3600 X101.06 Y92.575
G1 F1200 X114.568 Y106.083 E69.70482
G0 X114.638 Y106.153
G0 F3600 X114.568 Y105.518
G1 F1200 X101.626 Y92.575 E70.61799
G0 X101.556 Y92.505
G0 F3600 X102.191 Y92.575
G1 F1200 X114.568 Y104.952 E71.49125
G0 X114.638 Y105.022
G0 F3600 X114.568 Y104.386
G1 F1200 X102.757 Y92.575 E72.32458
G0 X102.687 Y92.505
G0 F3600 X103.323 Y92.575
G1 F1200 X114.568 Y103.82 E73.11797
G0 X114.638 Y103.89
G0 F3600 X114.568 Y103.255
G1 F1200 X103.888 Y92.575 E73.87151
G0 X103.818 Y92.505
G0 F3600 X104.454 Y92.575
G1 F1200 X114.568 Y102.689 E74.5851
G0 X114.638 Y102.759
G0 F3600 X114.568 Y102.123
G1 F1200 X105.02 Y92.575 E75.25877
G0 X104.95 Y92.505
G0 F3600 X105.585 Y92.575
G1 F1200 X114.568 Y101.558 E75.89257
G0 X114.638 Y101.628
G0 F3600 X114.568 Y100.992
G1 F1200 X106.151 Y92.575 E76.48643
G0 X106.081 Y92.505
G0 F3600 X106.717 Y92.575
G1 F1200 X114.568 Y100.426 E77.04036
G0 X114.638 Y100.496
G0 F3600 X114.568 Y99.861
G1 F1200 X107.282 Y92.575 E77.55443
G0 X107.212 Y92.505
G0 F3600 X107.848 Y92.575
G1 F1200 X114.568 Y99.295 E78.02856
G0 X114.638 Y99.365
G0 F3600 X114.568 Y98.729
G1 F1200 X108.414 Y92.575 E78.46276
G0 X108.344 Y92.505
G0 F3600 X108.98 Y92.575
G1 F1200 X114.568 Y98.164 E78.85706
G0 X114.638 Y98.234
G0 F3600 X114.568 Y97.598
G1 F1200 X109.545 Y92.575 E79.21146
G0 X109.475 Y92.505
G0 F3600 X110.111 Y92.575
G1 F1200 X114.568 Y97.032 E79.52592
G0 X114.638 Y97.102
G0 F3600 X114.568 Y96.467
G1 F1200 X110.677 Y92.575 E79.80049
G0 X110.607 Y92.505
G0 F3600 X111.242 Y92.575
G1 F1200 X114.568 Y95.901 E80.03516
G0 X114.638 Y95.971
G0 F3600 X114.568 Y95.335
G1 F1200 X111.808 Y92.575 E80.22989
G0 X111.738 Y92.505
G0 F3600 X112.374 Y92.575
G1 F1200 X114.568 Y94.769 E80.38469
G0 X114.638 Y94.839
G0 F3600 X114.568 Y94.204
G1 F1200 X112.939 Y92.575 E80.49962
G0 X112.869 Y92.505
G0 F3600 X113.505 Y92.575
G1 F1200 X115.09 Y94.159 E80.61142
G0 X115.16 Y94.229
G0 F3600 X115.655 Y94.159
G1 F1200 X114.071 Y92.575 E80.72318
G0 X114.001 Y92.505
G0 F3600 X114.636 Y92.575
G1 F1200 X116.221 Y94.159 E80.83497
G0 X116.291 Y94.229
G0 F3600 X116.787 Y94.159
G1 F1200 X115.202 Y92.575 E80.94677
G0 X115.132 Y92.505
G0 F3600 X115.768 Y92.575
G1 F1200 X117.352 Y94.159 E81.05853
G0 X117.422 Y94.229
G0 F3600 X117.918 Y94.159
G1 F1200 X116.333 Y92.575 E81.17032
G0 X116.263 Y92.505
G0 F3600 X116.899 Y92.575
G1 F1200 X118.484 Y94.159 E81.28212
G0 X118.554 Y94.229
G0 F3600 X119.049 Y94.159
G1 F1200 X117.465 Y92.575 E81.39388
G0 X117.395 Y92.505
G0 F3600 X118.03 Y92.575
G1 F1200 X119.615 Y94.159 E81.50567
G0 X119.685 Y94.229
G0 F3600 X120.181 Y94.159
G1 F1200 X118.596 Y92.575 E81.61747
G0 X118.526 Y92.505
G0 F3600 X119.162 Y92.575
G1 F1200 X120.746 Y94.159 E81.72923
G0 X120.816 Y94.229
G0 F3600 X121.312 Y94.159
G1 F1200 X119.728 Y92.575 E81.84099
G0 X119.658 Y92.505
G0 F3600 X120.293 Y92.575
G1 F1200 X121.878 Y94.159 E81.95278
G0 X121.948 Y94.229
G0 F3600 X122.444 Y94.159
G1 F1200 X120.859 Y92.575 E82.06458
G0 X120.789 Y92.505
G0 F3600 X121.425 Y92.575
G1 F1200 X123.009 Y94.159 E82.17634
G0 X123.079 Y94.229
G0 F3600 X123.575 Y94.159
G1 F1200 X121.99 Y92.575 E82.28813
G0 X121.92 Y92.505
G0 F3600 X122.556 Y92.575
G1 F1200 X124.141 Y94.159 E82.39993
G0 X124.211 Y94.229
G0 F3600 X124.706 Y94.159
G1 F1200 X123.122 Y92.575 E82.51169
G0 X123.052 Y92.505
G0 F3600 X123.687 Y92.575
G1 F1200 X125.272 Y94.159 E82.62348
G0 X125.342 Y94.229
G0 F3600 X125.838 Y94.159
G1 F1200 X124.253 Y92.575 E82.73528
G0 X124.183 Y92.505
G0 F3600 X124.819 Y92.575
G1 F1200 X126.403 Y94.159 E82.84704
G0 X126.473 Y94.229
G0 F3600 X126.969 Y94.159
G1 F1200 X125.384 Y92.575 E82.95883
G0 X125.314 Y92.505
G0 F3600 X125.95 Y92.575
G1 F1200 X127.535 Y94.159 E83.07063
G0 X127.605 Y94.229
G0 F3600 X128.1 Y94.159
G1 F1200 X126.516 Y92.575 E83.18239
G0 X126.446 Y92.505
G0 F3600 X127.081 Y92.575
G1 F1200 X128.666 Y94.159 E83.29418
G0 X128.736 Y94.229
G0 F3600 X129.232 Y94.159
G1 F1200 X127.647 Y92.575 E83.40598
G0 X127.577 Y92.505
G0 F3600 X128.213 Y92.575
G1 F1200 X129.797 Y94.159 E83.51773
G0 X129.867 Y94.229
G0 F3600 X130.363 Y94.159
G1 F1200 X128.778 Y92.575 E83.62953
G0 X128.708 Y92.505
G0 F3600 X129.344 Y92.575
G1 F1200 X130.929 Y94.159 E83.74133
G0 X130.999 Y94.229
G0 F3600 X131.494 Y94.159
G1 F1200 X129.91 Y92.575 E83.85308
G0 X129.84 Y92.505
G0 F3600 X130.476 Y92.575
G1 F1200 X132.06 Y94.159 E83.96484
G0 X132.13 Y94.229
G0 F3600 X132.626 Y94.159
G1 F1200 X131.041 Y92.575 E84.07664
G0 X130.971 Y92.505
G0 F3600 X131.607 Y92.575
G1 F1200 X133.192 Y94.159 E84.18843
G0 X133.262 Y94.229
G0 F3600 X133.757 Y94.159
G1 F1200 X132.173 Y92.575 E84.30019
G0 X132.103 Y92.505
G0 F3600 X132.738 Y92.575
G1 F1200 X134.323 Y94.159 E84.41199
G0 X134.393 Y94.229
G0 F3600 X134.889 Y94.159
G1 F1200 X133.304 Y92.575 E84.52378
G0 X133.234 Y92.505
G0 F3600 X133.87 Y92.575
G1 F1200 X135.454 Y94.159 E84.63554
G0 X135.524 Y94.229
G0 F3600 X135.837 Y93.976
G1 F1200 X134.435 Y92.575 E84.73443
G0 X134.365 Y92.505
G0 F3600 X135.001 Y92.575
G1 F1200 X135.837 Y93.41 E84.79338
G0 X135.907 Y93.48
G0 F3600 X135.837 Y92.845
G1 F1200 X135.567 Y92.575 E84.81243
G0 F3600 X115.121 Y94.712
G0 X114.568 Y113.437
G1 F1200 X94.161 Y93.029 E86.25229
G0 X94.091 Y92.959
G0 F3600 X94.161 Y93.595
G1 F1200 X114.568 Y114.003 E87.69215
G0 X114.638 Y114.073
G0 F3600 X114.568 Y114.568
G1 F1200 X94.161 Y94.161 E89.13197
G0 X94.091 Y94.091
G0 F3600 X94.161 Y94.726
G1 F1200 X114.568 Y115.134 E90.57183
G0 X114.638 Y115.204
G0 F3600 X114.568 Y115.7
G1 F1200 X94.161 Y95.292 E92.01169
G0 X94.091 Y95.222
G0 F3600 X94.161 Y95.858
G1 F1200 X114.568 Y116.266 E93.45155
G0 X114.638 Y116.336
G0 F3600 X114.568 Y116.831
G1 F1200 X94.161 Y96.423 E94.89141
G0 X94.091 Y96.353
G0 F3600 X94.161 Y96.989
G1 F1200 X114.568 Y117.397 E96.33127
G0 X114.638 Y117.467
G0 F3600 X114.568 Y117.963
G1 F1200 X94.161 Y97.555 E97.77113
G0 X94.091 Y97.485
G0 F3600 X94.161 Y98.12
G1 F1200 X114.568 Y118.528 E99.21098
G0 X114.638 Y118.598
G0 F3600 X114.568 Y119.094
G1 F1200 X94.161 Y98.686 E100.65084
G0 X94.091 Y98.616
G0 F3600 X94.161 Y99.252
G1 F1200 X114.568 Y119.66 E102.0907
G0 X114.638 Y119.73
G0 F3600 X114.568 Y120.225
G1 F1200 X94.161 Y99.818 E103.53053
G0 X94.091 Y99.748
G0 F3600 X94.161 Y100.383
G1 F1200 X114.568 Y120.791 E104.97039
G0 X114.638 Y120.861
G0 F3600 X114.568 Y121.357
G1 F1200 X94.161 Y100.949 E106.41025
G0 X94.091 Y100.879
G0 F3600 X94.161 Y101.515
G1 F1200 X114.568 Y121.922 E107.85007
G0 X114.638 Y121.992
G0 F3600 X114.568 Y122.488
G1 F1200 X94.161 Y102.08 E109.28993
G0 X94.091 Y102.01
G0 F3600 X94.161 Y102.646
G1 F1200 X114.568 Y123.054 E110.72979
G0 X114.638 Y123.124
G0 F3600 X114.568 Y123.619
G1 F1200 X94.161 Y103.212 E112.16961
G0 X94.091 Y103.142
G0 F3600 X94.161 Y103.777
G1 F1200 X114.568 Y124.185 E113.60947
G0 X114.638 Y124.255
G0 F3600 X114.568 Y124.751
G1 F1200 X94.161 Y104.343 E115.04933
G0 X94.091 Y104.273
G0 F3600 X94.161 Y104.909
G1 F1200 X114.568 Y125.316 E116.48916
G0 X114.638 Y125.386
G0 F3600 X114.568 Y125.882
G1 F1200 X94.161 Y105.474 E117.92902
G0 X94.091 Y105.404
G0 F3600 X94.161 Y106.04
G1 F1200 X114.568 Y126.448 E119.36887
G0 X114.638 Y126.518
G0 F3600 X114.568 Y127.014
G1 F1200 X94.161 Y106.606 E120.80873
G0 X94.091 Y106.536
G0 F3600 X94.161 Y107.171
G1 F1200 X114.568 Y127.579 E122.24859
G0 X114.638 Y127.649
G0 F3600 X114.568 Y128.145
G1 F1200 X94.161 Y107.737 E123.68845
G0 X94.091 Y107.667
G0 F3600 X94.161 Y108.303
G1 F1200 X114.568 Y128.711 E125.12831
G0 X114.638 Y128.781
G0 F3600 X114.568 Y129.276
G1 F1200 X94.161 Y108.868 E126.56817
G0 X94.091 Y108.798
G0 F3600 X94.161 Y109.434
G1 F1200 X114.568 Y129.842 E128.00803
G0 X114.638 Y129.912
G0 F3600 X114.568 Y130.408
G1 F1200 X94.161 Y110 E129.44789
G0 X94.091 Y109.93
G0 F3600 X94.161 Y110.566
G1 F1200 X114.568 Y130.973 E130.88771
G0 X114.638 Y131.043
G0 F3600 X114.568 Y131.539
G1 F1200 X94.161 Y111.131 E132.32757
G0 X94.091 Y111.061
G0 F3600 X94.161 Y111.697
G1 F1200 X114.568 Y132.105 E133.76743
G0 X114.638 Y132.175
G0 F3600 X114.568 Y132.67
G1 F1200 X94.161 Y112.263 E135.20726
G0 X94.091 Y112.193
G0 F3600 X94.161 Y112.828
G1 F1200 X114.568 Y133.236 E136.64712
G0 X114.638 Y133.306
G0 F3600 X114.568 Y133.802
G1 F1200 X94.161 Y113.394 E138.08698
G0 X94.091 Y113.324
G0 F3600 X94.161 Y113.96
G1 F1200 X114.568 Y134.367 E139.5268
G0 X114.638 Y134.437
G0 F3600 X114.568 Y134.933
G1 F1200 X94.161 Y114.525 E140.96666
G0 X94.091 Y114.455
G0 F3600 X94.161 Y115.091
G1 F1200 X114.568 Y135.499 E142.40652
G0 X114.638 Y135.569
G0 F3600 X114.568 Y136.065
G1 F1200 X94.161 Y115.657 E143.84638
G0 X94.091 Y115.587
G0 F3600 X94.161 Y116.222
G1 F1200 X114.16 Y136.222 E145.25745
G0 X114.23 Y136.292
G0 F3600 X113.594 Y136.222
G1 F1200 X94.161 Y116.788 E146.62859
G0 X94.091 Y116.718
G0 F3600 X94.161 Y117.354
G1 F1200 X113.028 Y136.222 E147.95979
G0 X113.098 Y136.292
G0 F3600 X112.463 Y136.222
